X: 8316
T: Corriga Grove
R: reel
M: 4/4
K: Fmajor
A|c2cB/A/ cAfd|c2cB/A/ BGGA|c2cB/A/ cfag fdcB AF F:|
e|f2af c'faf|cfaf egga|f2af c'faf|dfcB AFFe|
f2af c'faf|cfaf eggb|afbg afge|fdcB AF F||

